X:191
T:Valentine Day. VWMLa.191
R:Country-dance
S:Anon. MS, late 18thC, Vaughan Williams Mem. Library
O:England;Yorkshire
Z:vmp/efdss.Simon Wilson. Reviewed PJH 2008.
M:2/4
L:1/8
Q:1/4=120
K:D
a/g/|fbea|d>eff|g/a/b/a/ g/f/e/d/|c/d/e/c/ A(a/g/)|\
fbea|d>efg|bgec|d2d2:|
|:"P"[df][df][df][df]|[ce][ce][ce][ce]|\
[Bg][Bg][Bg][Bg]|[Af][Af][Af][Af]|\
[.B.g](b/g/) (b/g/)(b/g/)|[.A.f](a/f/) (a/f/)(a/f/)|\
gedc|d2D2:|

